static/images/brands/esbuild.svg

<?xml version="1.0" encoding="UTF-8"?>
<svg width="256px" height="256px" viewBox="0 0 256 256" version="1.1" xmlns="http://www.w3.org/2000/svg" xmlns:xlink="http://www.w3.org/1999/xlink" preserveAspectRatio="xMidYMid">
    <g>
        <circle fill="#FFCF00" cx="128" cy="128" r="128"></circle>
        <path d="M69.2852814,58.7147186 L138.570563,128 L69.2852814,197.285281 L52.3147186,180.314719 L104.629,128 L52.3147186,75.6852814 L69.2852814,58.7147186 Z M146.085281,58.7147186 L215.370563,128 L146.085281,197.285281 L129.114719,180.314719 L181.429,128 L129.114719,75.6852814 L146.085281,58.7147186 Z" fill="#191919"></path>
    </g>
</svg>

<svg width="256" height="256" xmlns="http://www.w3.org/2000/svg" preserveAspectRatio="xMidYMid"><circle fill="#FFCF00" cx="128" cy="128" r="128"/><path d="M69.285 58.715L138.571 128l-69.286 69.285-16.97-16.97L104.629 128 52.315 75.685l16.97-16.97zm76.8 0L215.371 128l-69.286 69.285-16.97-16.97L181.429 128l-52.314-52.315 16.97-16.97z" fill="#191919"/></svg>
